X: 33292
T: Put Me In The Big Chest
R: reel
M: 4/4
K: Gmajor
|:FGBd e2 eg|fdcB cBGB|FGBd e2 eg|fdcd B/B/B B2:|
gaba gfed|cBcd BGGf|gaba gfed|cBcd B/B/B B2|
gaba gfed|cBcd BGGB|FGBc defg|fdcd B/B/B B2||
|:EFAc d2 df|ecBA BAFA|EFAc d2 df|ecBc A/A/A A2:|
fgag fedc|BABc AFFe|fgag fedc|BABc A/A/A A2|
fgag fedc|BABc AFFA|EFAB cdef|ecBc A/A/A A2||
|:DEGB c2 ce|dBAG AGEG|DEGB c2 ce|dBAB G/G/G G2:|
efgf edcB|AGAB GEEd|efgf edcB|AGAB G/G/G G2|
efgf edcB|AGAB GEEG|DEGA Bcde|dBAB G/G/G G2||

